src/assets/images/howItWorks-step2.svg

<?xml version="1.0" encoding="UTF-8"?>
<svg width="43px" height="28px" viewBox="0 0 43 28" version="1.1" xmlns="http://www.w3.org/2000/svg" xmlns:xlink="http://www.w3.org/1999/xlink">
    <!-- Generator: Sketch 54.1 (76490) - https://sketchapp.com -->
    <title>Group 15</title>
    <desc>Created with Sketch.</desc>
    <defs>
        <polygon id="path-1" points="0 0.0991794872 19.9060256 0.0991794872 19.9060256 19.9999487 0 19.9999487"></polygon>
        <polygon id="path-3" points="0.0393442326 0.0939130435 12.9547453 0.0939130435 12.9547453 11.959158 0.0393442326 11.959158"></polygon>
    </defs>
    <g id="Landing-Pages" stroke="none" stroke-width="1" fill="none" fill-rule="evenodd">
        <g id="Landing-Page---1--Copy-11" transform="translate(-10.000000, -724.000000)">
            <g id="Group-15" transform="translate(10.000000, 724.000000)">
                <g id="Group-3" transform="translate(0.000000, 8.000000)">
                    <mask id="mask-2" fill="white">
                        <use xlink:href="#path-1"></use>
                    </mask>
                    <g id="Clip-2"></g>
                    <path d="M16.4762821,1.80892308 C16.7021795,1.57276923 17.0155128,1.43430769 17.3488462,1.43430769 C17.6778205,1.43430769 17.990641,1.57276923 18.2270513,1.81917949 C18.2885897,1.88071795 18.345,1.94764103 18.3962821,2.00405128 C18.4373077,2.05020513 18.4785897,2.09661538 18.5144872,2.13251282 C18.6070513,2.22994872 18.7044872,2.32225641 18.7970513,2.40969231 C18.9921795,2.58430769 19.2026923,2.74866667 19.4183333,2.88712821 C19.5721795,2.98969231 19.7365385,3.08225641 19.900641,3.1645641 L19.900641,0.0991794872 L6.02782051,0.0991794872 L8.04064103,2.112 L-0.000128205128,10.1471282 L3.86602564,14.0132821 L8.80551282,9.07405128 L10.9260256,11.1945641 L5.98679487,16.1337949 L9.85294872,19.9999487 L17.8932051,11.9594359 L19.9060256,13.9722564 L19.9060256,5.76225641 L19.8957692,5.75712821 C19.8288462,5.74174359 19.7724359,5.71610256 19.7414103,5.70071795 C19.7057692,5.69046154 19.6647436,5.67507692 19.6234615,5.65969231 C19.5567949,5.63405128 19.4901282,5.60841026 19.4285897,5.58789744 C19.2334615,5.52123077 19.0585897,5.43892308 18.8996154,5.35687179 C18.5811538,5.20276923 18.2680769,5.01789744 17.9701282,4.81251282 C17.6621795,4.602 17.3898718,4.39148718 17.1488462,4.16558974 C17.030641,4.05789744 16.9075641,3.93969231 16.7739744,3.79610256 L16.7329487,3.74969231 C16.6352564,3.64712821 16.5224359,3.52892308 16.4196154,3.39533333 C16.1783333,3.072 16.1424359,2.76405128 16.1578205,2.56379487 C16.1680769,2.28123077 16.2862821,2.01430769 16.4762821,1.80892308" id="Fill-1" fill="#2F5472" mask="url(#mask-2)"></path>
                </g>
                <path d="M43,27 L42.9949184,27 C42.3897047,26.9846927 40.0542199,26.928566 39.4896586,26.9132587 C39.4337614,26.9081562 39.4337614,26.8670817 39.4284258,26.8364671 C39.4284258,26.8007501 39.4235983,26.7701355 39.4235983,26.7344185 C39.4134352,26.5861928 39.3369577,25.5236115 39.3115499,25.1353165 C39.3115499,25.1149068 39.3115499,24.9567314 39.2912237,24.9567314 C39.1893384,24.951629 37.5614608,24.8340179 37.4392493,24.823813 C37.3985968,24.8187106 37.4087599,24.7727887 37.4036784,24.7368166 C37.3782706,24.3589816 37.2814668,22.9744368 37.2766394,22.9387198 C37.2766394,22.9234125 37.2611406,22.9285149 37.24615,22.9285149 C36.6251834,22.8825931 36.0148881,22.8417736 35.3990031,22.7958517 C35.38884,22.7958517 35.38884,22.7853917 35.38884,22.7700844 C35.3735953,22.5861418 35.2872088,21.3345154 35.261801,20.9770901 C35.261801,20.9515779 35.2564653,20.9309131 35.2564653,20.9054009 C35.2564653,20.9054009 33.4809684,20.7778401 33.4250712,20.7727377 C33.4149081,20.7727377 33.3793372,20.7727377 33.3742556,20.7676353 C33.3285216,20.7217134 31.2730307,18.6628824 31.2628676,18.6424726 C30.9831277,18.7549812 30.7338772,18.8366201 30.4437202,18.9029518 C29.2073767,19.2042503 27.8897283,19.1022017 26.7143635,18.6169605 C25.4526123,18.0957471 24.38955,17.1354696 23.7330125,15.9348675 C23.0360766,14.6526265 22.8325601,13.1456234 23.1377078,11.7202592 L23.1430434,11.7100543 C23.2853271,11.1125596 23.4941792,10.5454244 23.8044084,10.0089037 C24.5930665,8.63992142 25.9157964,7.61305712 27.4369613,7.19924994 C27.3604839,7.79699977 27.1826293,8.3794423 26.9028894,8.91570783 C26.7603517,9.19659668 26.5873246,9.46243335 26.3939712,9.71270761 C26.3177478,9.81501135 26.2361888,9.91195755 26.1498023,10.0038013 C26.0634158,10.1010026 25.9615305,10.1928464 25.8799714,10.2897926 C25.6716275,10.5505268 25.6053131,10.9082073 25.7069443,11.2299156 C25.8189927,11.5722887 26.1142313,11.8378702 26.465113,11.9042019 C26.6587205,11.9399189 26.8619829,11.9195091 27.0451731,11.8429727 C27.2232817,11.7715386 27.3556564,11.6386203 27.4826954,11.5008547 C27.742109,11.2248131 27.9814504,10.928617 28.2002116,10.6168584 C28.9327184,9.55427711 29.3651591,8.28734342 29.4464641,7 C30.1843066,7.05638187 30.9218949,7.25027426 31.593423,7.56713524 C32.9773858,8.22611424 34.0762731,9.41651147 34.6309253,10.846723 C35.1649972,12.2312677 35.1649972,13.7943975 34.6410884,15.1789423 C34.7630459,15.3014006 42.8627979,23.4341659 42.9136135,23.4854453 C42.9288582,24.0931449 42.9441028,24.7010996 42.9593475,25.3039518 C42.9695106,25.8710871 42.9847553,26.4328648 43,27" id="Fill-4" fill="#2F5472"></path>
                <polygon id="Fill-6" fill="#2F5472" points="20.48 13.5 20.501 13.5 20.52 13.5"></polygon>
                <path d="M20.4695,12.49 C20.4905,12.49 20.5095,12.49 20.5305,12.51 C20.5095,12.49 20.4905,12.49 20.4695,12.49" id="Fill-8" fill="#2F5472"></path>
                <g id="Group-12" transform="translate(15.000000, 0.000000)">
                    <mask id="mask-4" fill="white">
                        <use xlink:href="#path-3"></use>
                    </mask>
                    <g id="Clip-11"></g>
                    <path d="M12.9498396,6.89206957 C12.9645566,8.25563478 12.5912358,9.60328696 11.8889906,10.7419826 C11.8203113,10.8515478 11.7464811,10.9613739 11.6726509,11.0659826 C11.6088774,11.165113 11.5350472,11.2746783 11.4565566,11.3584174 C11.3976887,11.4210261 11.3486321,11.4943304 11.2895189,11.5621565 C11.2306509,11.6299826 11.171783,11.6978087 11.1129151,11.7606783 C11.0243679,11.8545913 10.9211038,11.9485043 10.7935566,11.9537217 C10.5774623,11.9902435 10.3564623,11.8389391 10.2926887,11.6143304 C10.1648962,11.2903304 10.4741981,11.0448522 10.6461415,10.8358957 C11.5892547,9.70763478 12.0756509,8.19798261 12.0116321,6.69876522 C11.9527642,5.26763478 11.3976887,3.88841739 10.4597264,2.85954783 C9.6395,1.96111304 8.5590283,1.36033043 7.39982075,1.1565913 C6.27004717,0.958069565 5.09612264,1.13572174 4.06470755,1.66841739 C2.93517925,2.25354783 2.00678302,3.25633043 1.48114151,4.46833043 C1.03914151,5.47137391 0.882160377,6.60485217 1.00970755,7.70702609 L0.0766509434,7.70702609 C0.0766509434,7.68615652 0.071745283,7.67572174 0.071745283,7.67050435 C0.0570283019,7.50328696 0.0469716981,7.33085217 0.0423113208,7.16389565 C0.0325,6.82424348 0.0469716981,6.4845913 0.0864622642,6.1452 C0.238783019,4.76102609 0.793613208,3.44441739 1.66289623,2.39989565 C2.45883962,1.44902609 3.49491509,0.738678261 4.64431132,0.378156522 C5.7395,0.0332869565 6.91366981,0.0019826087 8.02357547,0.284243478 C9.16782075,0.576678261 10.2240094,1.20354783 11.0540472,2.08633043 C12.0116321,3.0998087 12.6550094,4.4265913 12.8713491,5.84233043 C12.9204057,6.17650435 12.9498396,6.51615652 12.9547453,6.85554783 C12.9498396,6.8712 12.9498396,6.88163478 12.9498396,6.89206957" id="Fill-10" fill="#2F5472" mask="url(#mask-4)"></path>
                </g>
                <path d="M21.9475443,13 C21.7231771,13 21.5035785,12.9904724 21.2789728,12.9666534 L21.2744426,12.9666534 C21.2122111,12.9666534 21.1454493,12.9475983 21.0832178,12.9428345 C21.016456,12.9333069 20.9494558,12.9235411 20.8781637,12.9140135 C20.7444018,12.8949583 20.6106398,12.8616118 20.4768778,12.833029 L20.4723475,12.833029 C20.3431158,12.7996824 20.2095923,12.7710996 20.080599,12.7279873 C20.0758303,12.7279873 20.0710616,12.7232235 20.0710616,12.7232235 L20.0615242,12.7232235 C20.0376807,12.7184597 20.0090685,12.7089321 19.985225,12.6994045 C19.9613815,12.6994045 19.9232319,12.6755855 19.89915,12.6708218 C19.8660075,12.6612942 19.8323882,12.6470028 19.7990073,12.6327114 C19.7272384,12.6041286 19.6604767,12.5755459 19.5887077,12.5517269 C19.4456468,12.5038507 19.3073545,12.4371576 19.1735926,12.3702263 C18.9015383,12.23684 18.6437902,12.0841604 18.395341,11.9174276 C18.151899,11.7502183 17.9179943,11.5691941 17.702926,11.3736403 C17.5930075,11.2733624 17.4880962,11.168559 17.3879535,11.0635173 C17.2925795,10.9634776 17.1921984,10.8631997 17.1111306,10.7486304 C17.0393617,10.6533545 16.9916747,10.543549 17.0012121,10.4244541 C17.0107495,10.3196507 17.0536678,10.214609 17.1251982,10.1381501 C17.2112732,10.047638 17.325722,10 17.4499466,10 C17.5834701,10 17.6983958,10.0571655 17.789001,10.1524414 C17.8796063,10.2479555 17.9606742,10.3482334 18.0515179,10.4435093 C18.1471303,10.543549 18.2472729,10.6390631 18.3524227,10.734339 C18.5574768,10.9206034 18.7820824,11.0921 19.0159871,11.2400159 C19.89915,11.8076221 20.9494558,12.1127432 22,12.1032156 C21.952313,12.3990472 21.9425372,12.6994045 21.9475443,13" id="Fill-13" fill="#2F5472"></path>
            </g>
        </g>
    </g>
</svg>

<svg xmlns="http://www.w3.org/2000/svg" xmlns:xlink="http://www.w3.org/1999/xlink" width="306" height="148" viewBox="0 0 306 148">
    <defs>
        <path id="a" d="M0 .1h19.906V20H0z"/>
        <path id="c" d="M.04.094h12.915v11.865H.039z"/>
    </defs>
    <g fill="none" fill-rule="evenodd">
        <text fill="#42505C" font-family="OpenSans-Light, Open Sans" font-size="16" font-weight="300">
            <tspan x="81" y="57">GetGround can connect you to </tspan> <tspan x="81" y="85">mortgages, insurance, property </tspan> <tspan x="81" y="113">management and solicitors </tspan> <tspan x="81" y="141">(optional service)</tspan>
        </text>
        <text fill="#42505C" font-family="OpenSans-Bold, Open Sans" font-size="13" font-weight="bold">
            <tspan x="81" y="14">Step 2</tspan>
        </text>
        <path fill="#2F5472" d="M57.5 19a4.5 4.5 0 1 0 0-9 4.5 4.5 0 0 0 0 9z"/>
        <g transform="translate(0 8)">
            <mask id="b" fill="#fff">
                <use xlink:href="#a"/>
            </mask>
            <path fill="#2F5472" d="M16.476 1.809c.226-.236.54-.375.873-.375.329 0 .642.139.878.385.062.062.118.129.17.185.04.046.082.093.117.129A4.979 4.979 0 0 0 19.9 3.165V.099H6.029L8.04 2.112 0 10.147l3.866 3.866 4.94-4.939 2.12 2.12-4.94 4.94L9.854 20l8.04-8.04 2.013 2.012v-8.21l-.01-.005a.716.716 0 0 1-.155-.056c-.035-.01-.076-.026-.118-.041a4.728 4.728 0 0 0-.194-.072 3.888 3.888 0 0 1-.53-.231 7.091 7.091 0 0 1-.929-.544 6.814 6.814 0 0 1-1.196-1.017l-.041-.046c-.098-.103-.21-.221-.313-.355a1.226 1.226 0 0 1-.262-.831c.01-.283.128-.55.318-.755" mask="url(#b)"/>
        </g>
        <path fill="#2F5472" d="M43 27h-.005c-.605-.015-2.94-.071-3.505-.087-.056-.005-.056-.046-.062-.077 0-.035-.004-.066-.004-.102-.01-.148-.087-1.21-.112-1.599 0-.02 0-.178-.02-.178-.103-.005-1.73-.123-1.853-.133-.04-.005-.03-.051-.035-.087-.026-.378-.123-1.763-.127-1.798 0-.016-.016-.01-.03-.01-.622-.046-1.232-.087-1.848-.133-.01 0-.01-.01-.01-.026-.015-.184-.102-1.435-.127-1.793 0-.025-.006-.046-.006-.072 0 0-1.775-.127-1.83-.132-.011 0-.047 0-.052-.005-.045-.046-2.101-2.105-2.111-2.126a5.23 5.23 0 0 1-.82.261 6.06 6.06 0 0 1-3.729-.286 6.062 6.062 0 0 1-2.981-2.682 6.156 6.156 0 0 1-.595-4.215l.005-.01a6.25 6.25 0 0 1 .661-1.701 6.066 6.066 0 0 1 3.633-2.81 5.112 5.112 0 0 1-.534 1.717 5.037 5.037 0 0 1-.753 1.088c-.087.097-.188.189-.27.286-.208.26-.275.618-.173.94.112.342.407.608.758.674.194.036.397.016.58-.061.178-.071.31-.204.438-.342.26-.276.498-.572.717-.884A7.21 7.21 0 0 0 29.446 7c.738.056 1.476.25 2.147.567a6.094 6.094 0 0 1 3.038 3.28 6.112 6.112 0 0 1 .01 4.332l8.273 8.306.045 1.819c.01.567.026 1.129.041 1.696M20.48 13.5h.04zM20.47 12.49c.02 0 .04 0 .06.02-.02-.02-.04-.02-.06-.02"/>
        <g transform="translate(15)">
            <mask id="d" fill="#fff">
                <use xlink:href="#c"/>
            </mask>
            <path fill="#2F5472" d="M12.95 6.892a7.22 7.22 0 0 1-1.061 3.85c-.069.11-.143.22-.216.324-.064.1-.138.209-.216.292-.06.063-.108.136-.167.204-.06.068-.118.136-.177.199-.089.094-.192.188-.32.193-.216.036-.437-.115-.5-.34-.128-.324.181-.57.353-.778.943-1.128 1.43-2.638 1.366-4.137-.06-1.431-.614-2.81-1.552-3.84A5.44 5.44 0 0 0 7.4 1.158a5.283 5.283 0 0 0-3.335.511c-1.13.586-2.058 1.588-2.584 2.8a6.287 6.287 0 0 0-.471 3.239H.077c0-.02-.005-.031-.005-.036a8.565 8.565 0 0 1-.03-.507c-.01-.34.005-.68.044-1.019A7.093 7.093 0 0 1 1.663 2.4C2.459 1.449 3.495.739 4.644.378a6.19 6.19 0 0 1 3.38-.094c1.144.293 2.2.92 3.03 1.802a7.046 7.046 0 0 1 1.817 3.756c.05.335.079.674.084 1.014-.005.015-.005.026-.005.036" mask="url(#d)"/>
        </g>
        <path fill="#2F5472" d="M21.948 13c-.225 0-.444-.01-.669-.033h-.005c-.062 0-.129-.02-.19-.024l-.206-.029c-.134-.019-.267-.052-.401-.081h-.005c-.129-.033-.262-.062-.391-.105-.005 0-.01-.005-.01-.005h-.01a.47.47 0 0 1-.076-.024c-.024 0-.062-.023-.086-.028a.877.877 0 0 1-.1-.038c-.072-.029-.139-.057-.21-.081a3.234 3.234 0 0 1-.415-.182 6.497 6.497 0 0 1-1.47-.997c-.111-.1-.216-.204-.316-.31-.095-.1-.196-.2-.277-.314a.477.477 0 0 1-.11-.325.489.489 0 0 1 .124-.286c.086-.09.2-.138.325-.138a.46.46 0 0 1 .339.152c.09.096.172.196.263.292.095.1.195.195.3.29.205.187.43.358.664.506a5.465 5.465 0 0 0 2.984.863 5.097 5.097 0 0 0-.052.897"/>
    </g>
</svg>
